!!!COM: Bach, Johann Sebastian
!!!OTL: 276. Lobt Gott, ihr Christen, allzugleich
!!!ONM: No. 276
!!!OCL: Erk
!!!SCA: BWV 375
!!!YOE: Riemenschneider, Albert
!!!OPR: 371 Harmonized Chorales and 69 Chorale Melodies with Figured Bass
!!!OPT: Bach Chorale Harmonizations
**harm	**root	**kern	**kern	**kern	**kern
!	!	!bass	!tenor	!alto	!sprno
*Iorgan	*Iorgan	*Iorgan	*Iorgan	*Iorgan	*Iorgan
*k[f#c#g#d#a#e#]	*k[f#c#g#d#a#e#]	*k[f#c#g#d#a#e#]	*k[f#c#g#d#a#e#]	*k[f#c#g#d#a#e#]	*k[f#c#g#d#a#e#]
*F#:	*F#:	*F#:	*F#:	*F#:	*F#:
*met(c)	*met(c)	*met(c)	*met(c)	*met(c)	*met(c)
*M4/4	*M4/4	*M4/4	*M4/4	*M4/4	*M4/4
*MM60	*MM60	*MM60	*MM60	*MM60	*MM60
I	4GG	4F#	4A#	4c#	4f#
=1	=1	=1	=1	=1	=1
Vb	4DD	4E#	4G#	8c#	4cc#
.	.	.	.	8d#	.
V	4DD	4C#	8G#	4e#	4cc#
.	.	.	16A#	.	.
.	.	.	16B	.	.
I	4GG	8F#	8A#	4f#	4cc#
.	.	8G#	8G#	.	.
I	4GG	8A#	4F#	8f#	4cc#
.	.	8F#	.	8e	.
=2	=2	=2	=2	=2	=2
IV	4CC	4B	4F#	8d#	4dd#
.	.	.	.	8f#	.
V	4DD	4c#	4c#	4e#y	8cc#
.	.	.	.	.	8b
I;	4GG;	4F#;	4c#;	4f#;	4a#;
Vb	4DD	4E#	4c#	4g#	4g#
=3	=3	=3	=3	=3	=3
vi	4EE	4D#	4F#	4f#	8a#
.	.	.	.	.	8b#
iii	4BB	8A#	8c#	4e#	4cc#
.	.	8G#	8B#	.	.
vi7b	4EE	4F#	8A#	4d#	4cc#
.	.	.	8d#	.	.
V/V	4AA	4G#	8g#	4d#	4b#
.	.	.	8f#	.	.
=4	=4	=4	=4	=4	=4
V;	2.DD;	2.C#;	2.e#;	2.c#;	2.cc#;
V	4DD	4C#	8c#	4e#	4cc#
.	.	.	8B	.	.
=5	=5	=5	=5	=5	=5
I	4GG	8F#	8A#	4f#	4cc#
.	.	8G#	8B	.	.
iii	4BB	8A#	8c#	4e#	4cc#
.	.	8G#	8B	.	.
I	2GG	4.F#	8A#	8f#	8cc#
.	.	.	8B	8g#	8b
.	.	.	4c#	8a#	8a#
.	.	8G#	.	8g#	8b
=6	=6	=6	=6	=6	=6
!!linebreak: 2
Ib	4GG	4A#	4c#	4f#	8cc#
.	.	.	.	.	8b
IV7	4CC	4B	4d#	8f#	4a#
.	.	.	.	16e#	.
.	.	.	.	16d#	.
V;	4DD;	4c#;	4G#;	4e#;	4g#;
iii	4BB	4A#	8A#	4e#	4cc#
.	.	.	8G#	.	.
=7	=7	=7	=7	=7	=7
IVb	4CC	[4D#	8F#	4f#	4b
.	.	.	8G#	.	.
vi	8EE	8D#]	8A#	8f#	4a#
iiib	8BB	8C#	8c#	8e#	.
iib	4AA	8BB	4d#	4d#	4g#
.	.	8GG#	.	.	.
V	4DD	8C#	4c#	4e#	4g#
.	.	8B	.	.	.
=8	=8	=8	=8	=8	=8
Ib	4GG	4A#	4c#	4f#	8f#
.	.	.	.	.	8g#
viib	4FF#	4G#	4B	4e#	8a#
.	.	.	.	.	8b
viioD7/ii;	4GG#;	4F##;	4A#;	4e;	4cc#;
V7b/ii	4EE	4FF##y	4A#	4d#	4cc#
=9	=9	=9	=9	=9	=9
ii	4AA	4GG#	8B	8d#	4b
.	.	.	8c#	8e#y	.
vi	4EE	8D#	4d#	8f#	4a#
.	.	8C#	.	8e#	.
iib	4AA	8BB	8d#	4d#	4g#
.	.	8GG#	8B	.	.
V	4DD	4C#	8G#	4e#	4g#
.	.	.	16A#	.	.
.	.	.	16B	.	.
=10	=10	=10	=10	=10	=10
I;	2.GG;	2.FF#;	2.A#;	2.c#;	2.f#;
==	==	==	==	==	==
*-	*-	*-	*-	*-	*-
!!!CDT: 1685/3//-1750/7/28
!!!OCY: Deutschland
!!!AGN: chorale
!!!AST: Baroque
!!!AIN: vox
!!!YOY: 1941
!!!PPP: New York; London
!!!PPR: G. Schirmer
!!!ENC: David Huron
!!!EED: David Huron
!!!YEN: United States of America
!!!YER: 1992
!!!YEC: Copyright 1992 David Huron
!!!YEM: Rights to all derivative electronic formats reserved.
!!!YER: March 20, 1996
!!!AMT: simple quadruple
!!!EEV: 1.1
!!chor2scor: -l 2 -s 0.6 -o %b.pmx
